packages/bpk-svgs/src/icons/sm/lock.svg

<svg xmlns="http://www.w3.org/2000/svg" viewBox="0 0 18 18" enable-background="new 0 0 18 18"><path d="M13.3 7v-1.9c0-2.3-1.9-4.1-4.1-4.1h-.4c-2.2 0-4.1 1.9-4.1 4.1v1.9c-.9.1-1.7.9-1.7 1.8v6.3c0 1 .8 1.8 1.8 1.8h8.3c1 0 1.8-.8 1.8-1.8v-6.3c.1-.9-.7-1.7-1.6-1.8zm-4.5-4h.3c1.2 0 2.1.9 2.1 2.1v1.9h-4.5v-1.9c0-1.2 1-2.1 2.1-2.1z"/></svg>

<svg xmlns="http://www.w3.org/2000/svg" viewBox="0 0 18 18"><path d="M13.3 7V5.1c0-2.3-1.9-4.1-4.1-4.1h-.4C6.6 1 4.7 2.9 4.7 5.1V7c-.9.1-1.7.9-1.7 1.8v6.3c0 1 .8 1.8 1.8 1.8h8.3c1 0 1.8-.8 1.8-1.8V8.8c.1-.9-.7-1.7-1.6-1.8zM8.8 3h.3c1.2 0 2.1.9 2.1 2.1V7H6.7V5.1c0-1.2 1-2.1 2.1-2.1z"/></svg>
